brandFactory_export/3.Masa/Microchip_3Masa.svg

<?xml version="1.0" encoding="UTF-8"?>
<svg width="24px" height="24px" viewBox="0 0 24 24" version="1.1" xmlns="http://www.w3.org/2000/svg" xmlns:xlink="http://www.w3.org/1999/xlink">
    <title>3.Masa/Microchip_3Masa</title>
    <g id="Symbols" stroke="none" stroke-width="1" fill="none" fill-rule="evenodd">
        <g id="3.Masa/Microchip_3Masa" fill="#5CB615" fill-rule="nonzero">
            <path d="M22.8941176,12.5445378 C23.2941176,12.5310924 23.610084,12.1915966 23.5932773,11.7915966 C23.5798319,11.4117647 23.2739496,11.1058824 22.8941176,11.092437 L19.5697479,11.092437 L19.5697479,9.64033613 L22.8941176,9.64033613 C23.297479,9.64033613 23.6201681,9.31428571 23.6201681,8.91092437 C23.6201681,8.51092437 23.2941176,8.18487395 22.8941176,8.18487395 L19.5697479,8.18487395 L19.5697479,5.34453782 C19.5697479,4.6789916 18.9378151,4.07394958 18.2420168,4.07394958 L15.4521008,4.07394958 L15.4521008,0.72605042 C15.4521008,0.32605042 15.1260504,0 14.7226891,0 C14.3226891,0 13.9966387,0.32605042 13.9966387,0.72605042 L13.9966387,4.06722689 L12.5445378,4.06722689 L12.5445378,0.729411765 C12.5445378,0.32605042 12.2184874,0.00336134454 11.8184874,0.00336134454 C11.4151261,0.00336134454 11.092437,0.329411765 11.092437,0.729411765 L11.092437,4.07058824 L9.64033613,4.07058824 L9.64033613,0.729411765 C9.64033613,0.329411765 9.31428571,0.00336134454 8.91428571,0.00336134454 C8.51428571,0.00336134454 8.18823529,0.329411765 8.18823529,0.729411765 L8.18823529,4.07058824 L5.39495798,4.07058824 C4.69915966,4.07058824 4.06722689,4.67563025 4.06722689,5.34117647 L4.06722689,8.18151261 L0.729411765,8.18151261 C0.32605042,8.18151261 0.00336134454,8.50756303 0.00336134454,8.91092437 C0.00336134454,9.31092437 0.329411765,9.63697479 0.729411765,9.63697479 L4.06386555,9.63697479 L4.06386555,11.0890756 L0.729411765,11.0890756 C0.329411765,11.102521 0.0134453782,11.4420168 0.0302521008,11.8420168 C0.043697479,12.2218487 0.349579832,12.5277311 0.729411765,12.5411765 L4.06386555,12.5411765 L4.06386555,13.9932773 L0.729411765,13.9932773 C0.32605042,13.9932773 0.00336134454,14.3193277 0.00336134454,14.7226891 C0.00336134454,15.1226891 0.329411765,15.4487395 0.729411765,15.4487395 L4.06386555,15.4487395 L4.06386555,18.3193277 C4.06386555,18.9882353 4.68235294,19.5798319 5.39159664,19.5798319 L8.18487395,19.5798319 L8.18487395,22.8941176 C8.19831933,23.2941176 8.53781513,23.610084 8.93781513,23.5932773 C9.31764706,23.5798319 9.62352941,23.2739496 9.63697479,22.8941176 L9.63697479,19.5798319 L11.0890756,19.5798319 L11.0890756,22.8941176 C11.0890756,23.297479 11.4151261,23.6201681 11.8184874,23.6201681 C12.2184874,23.6201681 12.5445378,23.2941176 12.5445378,22.8941176 L12.5445378,19.5798319 L13.9966387,19.5798319 L13.9966387,22.8941176 C14.010084,23.2941176 14.3495798,23.610084 14.7495798,23.5932773 C15.1294118,23.5798319 15.4352941,23.2739496 15.4487395,22.8941176 L15.4487395,19.5798319 L18.2386555,19.5798319 C18.9478992,19.5798319 19.5663866,18.9915966 19.5663866,18.3193277 L19.5663866,15.4487395 L22.8907563,15.4487395 C23.2941176,15.4487395 23.6168067,15.1226891 23.6168067,14.7193277 C23.6168067,14.3193277 23.2907563,13.9932773 22.8907563,13.9932773 L19.5663866,13.9932773 L19.5663866,12.5411765 L22.8941176,12.5445378 Z" id="Path"></path>
        </g>
    </g>
</svg>

<svg width="24" height="24" viewBox="0 0 24 24" xmlns="http://www.w3.org/2000/svg"><path d="M22.894 12.545a.726.726 0 000-1.453H19.57V9.64h3.324a.727.727 0 000-1.455H19.57v-2.84c0-.666-.632-1.271-1.328-1.271h-2.79V.726a.728.728 0 00-1.455 0v3.341h-1.452V.73a.725.725 0 10-1.453 0v3.342H9.64V.729c0-.4-.326-.726-.726-.726-.4 0-.726.326-.726.726v3.342H5.395c-.696 0-1.328.605-1.328 1.27v2.84H.73a.727.727 0 000 1.455l3.335.001v1.452H.729a.726.726 0 000 1.452h3.335v1.452H.729a.727.727 0 000 1.455h3.335v2.871c0 .67.618 1.26 1.328 1.26h2.793v3.315a.726.726 0 001.452 0V19.58h1.452v3.314a.727.727 0 001.455 0V19.58h1.453v3.314a.726.726 0 001.452 0V19.58h2.79c.709 0 1.327-.588 1.327-1.26v-2.871h3.325a.727.727 0 000-1.455h-3.325V12.54l3.328.004z" fill="#5CB615" fill-rule="nonzero"/></svg>
